profile/logo-gh-inedit.svg

<?xml version="1.0" encoding="UTF-8" standalone="no"?>
<svg
   viewBox="0 0 1000 500"
   version="1.1"
   id="svg408"
   sodipodi:docname="logo-gh-inedit.svg"
   width="1000"
   height="500"
   inkscape:version="1.2 (dc2aedaf03, 2022-05-15)"
   xmlns:inkscape="http://www.inkscape.org/namespaces/inkscape"
   xmlns:sodipodi="http://sodipodi.sourceforge.net/DTD/sodipodi-0.dtd"
   xmlns="http://www.w3.org/2000/svg"
   xmlns:svg="http://www.w3.org/2000/svg">
  <defs
     id="defs412" />
  <sodipodi:namedview
     id="namedview410"
     pagecolor="#ffffff"
     bordercolor="#000000"
     borderopacity="0.25"
     inkscape:showpageshadow="2"
     inkscape:pageopacity="0.0"
     inkscape:pagecheckerboard="0"
     inkscape:deskcolor="#d1d1d1"
     showgrid="false"
     inkscape:zoom="0.85559921"
     inkscape:cx="438.28933"
     inkscape:cy="177.65327"
     inkscape:window-width="1920"
     inkscape:window-height="1009"
     inkscape:window-x="3832"
     inkscape:window-y="-8"
     inkscape:window-maximized="1"
     inkscape:current-layer="svg408" />
  <g
     transform="matrix(4.22427,0,0,4.22427,-1633.657,-792.49559)"
     id="g406">
    <title
       id="title396">inedit</title>
    <path
       d="m 425.7,226.08 h -9.5 l 1.53,-8.87 h 9.5 z m -8.1,45.4 h -9.3 l 6.85,-39.27 h 9.22 z m 48.9,-23.81 -4.13,23.82 h -9.22 l 4.33,-24.8 c 0.2,-1.4 0.35,-2.58 0.42,-3.63 0,-2.86 -1.26,-4.13 -4.68,-4.13 -3.74,0.15 -7.39,1.13 -10.7,2.87 l -5.22,29.68 h -9.23 l 6.83,-39.27 h 8.82 l -0.42,3 c 3.94,-2.47 8.48,-3.85 13.13,-4 8.3,0 10.76,4.33 10.76,10.13 -0.07,2.14 -0.31,4.27 -0.7,6.36"
       class="cls-1"
       style="fill:#898a8d"
       id="path398" />
    <path
       d="m 537.04,238.87 c -5.6,0 -9,1.53 -10.7,10.48 l -1,5.58 c -0.25,1.32 -0.39,2.66 -0.4,4 0,4.12 2.08,5.87 6.62,5.87 2.89,-0.04 5.74,-0.64 8.4,-1.76 l 4.25,-23.47 c -2.35,-0.4 -4.73,-0.64 -7.12,-0.7 m 10.61,32.64 H 539 l 0.28,-2 c -3.42,1.98 -7.3,3.03 -11.25,3.06 -7.9,0 -12.3,-4.68 -12.3,-13.2 -0.01,-1.88 0.18,-3.75 0.56,-5.6 l 1,-5.56 c 2.6,-13.76 9.7,-17 19.9,-17 2.68,0 5.36,0.26 8,0.77 L 548,217.21 h 9.23 z m 27.83,-45.43 h -9.5 l 1.54,-8.87 h 9.5 z m -8.1,45.4 h -9.3 L 565,232.21 h 9.22 z m 38.21,-31.97 h -9.57 l -3.9,21.3 c -0.22,0.92 -0.34,1.86 -0.36,2.8 0,1.53 0.85,1.88 3.22,1.88 2,0 4.82,-0.14 5.94,-0.28 l -1,6.2 c -2.67,0.7 -5.41,1.08 -8.17,1.13 -6.37,0 -9.1,-2.8 -9.1,-8.3 -0.01,-1.29 0.11,-2.58 0.35,-3.86 l 3.78,-20.88 -7.2,-0.57 1.07,-6.72 h 7.33 l 1.82,-10 h 9.22 l -1.77,10 h 9.57 z"
       class="cls-1"
       style="fill:#898a8d"
       id="path400" />
    <path
       d="m 494.36,238.59 c -7.27,0 -9.43,5 -10.27,9.5 l -0.08,0.63 h 17 c 0.25,-1.28 0.39,-2.59 0.42,-3.9 0,-3.36 -1.4,-6.22 -7.13,-6.22 m 14.82,16.13 H 482.9 c -0.3,1.44 -0.48,2.89 -0.55,4.35 0,3.7 1.88,5.86 9.08,5.86 4.2,0 9.08,-0.4 14.4,-0.9 l -1.13,6.85 c -4.92,1.12 -9.95,1.68 -15,1.68 -11.1,0 -16.28,-4.47 -16.28,-13.83 0.01,-2.27 0.25,-4.54 0.7,-6.78 l 0.5,-2.44 c 2.68,-13.17 9.81,-18.31 20.43,-18.31 10.27,0 15.3,5.17 15.3,14 -0.08,3.2 -0.48,6.39 -1.2,9.5"
       class="cls-2"
       style="fill:#ff5100"
       id="path402" />
    <path
       d="m 481.93,224.48 1.27,-7.27 H 512 l -1.25,7.28 h -28.82 z"
       class="cls-2"
       style="fill:#ff5100"
       id="path404" />
  </g>
</svg>

<?xml version="1.0" encoding="utf-8"?>
<svg viewBox="0 0 1000 300" xmlns="http://www.w3.org/2000/svg">
  <g style="" transform="matrix(4.22427, 0, 0, 4.22427, -1644.1759, -917.55414)">
    <title>inedit</title>
    <path d="M 425.7 226.08 L 416.2 226.08 L 417.73 217.21 L 427.23 217.21 Z M 417.6 271.48 L 408.3 271.48 L 415.15 232.21 L 424.37 232.21 Z M 466.5 247.67 L 462.37 271.49 L 453.15 271.49 L 457.48 246.69 C 457.68 245.29 457.83 244.11 457.9 243.06 C 457.9 240.2 456.64 238.93 453.22 238.93 C 449.48 239.08 445.83 240.06 442.52 241.8 L 437.3 271.48 L 428.07 271.48 L 434.9 232.21 L 443.72 232.21 L 443.3 235.21 C 447.24 232.74 451.78 231.36 456.43 231.21 C 464.73 231.21 467.19 235.54 467.19 241.34 C 467.12 243.48 466.88 245.61 466.49 247.7" class="cls-1" style="fill: rgb(137, 138, 141);"/>
    <path d="M 537.04 238.87 C 531.44 238.87 528.04 240.4 526.34 249.35 L 525.34 254.93 C 525.09 256.25 524.95 257.59 524.94 258.93 C 524.94 263.05 527.02 264.8 531.56 264.8 C 534.45 264.76 537.3 264.16 539.96 263.04 L 544.21 239.57 C 541.86 239.17 539.48 238.93 537.09 238.87 M 547.7 271.51 L 539 271.51 L 539.28 269.51 C 535.86 271.49 531.98 272.54 528.03 272.57 C 520.13 272.57 515.73 267.89 515.73 259.37 C 515.72 257.49 515.91 255.62 516.29 253.77 L 517.29 248.21 C 519.89 234.45 526.99 231.21 537.19 231.21 C 539.87 231.21 542.55 231.47 545.19 231.98 L 548 217.21 L 557.23 217.21 Z M 575.53 226.08 L 566.03 226.08 L 567.57 217.21 L 577.07 217.21 Z M 567.43 271.48 L 558.13 271.48 L 565 232.21 L 574.22 232.21 Z M 605.64 239.51 L 596.07 239.51 L 592.17 260.81 C 591.95 261.73 591.83 262.67 591.81 263.61 C 591.81 265.14 592.66 265.49 595.03 265.49 C 597.03 265.49 599.85 265.35 600.97 265.21 L 599.97 271.41 C 597.3 272.11 594.56 272.49 591.8 272.54 C 585.43 272.54 582.7 269.74 582.7 264.24 C 582.69 262.95 582.81 261.66 583.05 260.38 L 586.83 239.5 L 579.63 238.93 L 580.7 232.21 L 588.03 232.21 L 589.85 222.21 L 599.07 222.21 L 597.3 232.21 L 606.87 232.21 Z" class="cls-1" style="fill: rgb(137, 138, 141);"/>
    <path d="M 494.36 238.59 C 487.09 238.59 484.93 243.59 484.09 248.09 L 484.01 248.72 L 501.01 248.72 C 501.26 247.44 501.4 246.13 501.43 244.82 C 501.43 241.46 500.03 238.6 494.3 238.6 M 509.12 254.73 L 482.9 254.73 C 482.6 256.17 482.42 257.62 482.35 259.08 C 482.35 262.78 484.23 264.94 491.43 264.94 C 495.63 264.94 500.51 264.54 505.83 264.04 L 504.7 270.89 C 499.78 272.01 494.75 272.57 489.7 272.57 C 478.6 272.57 473.42 268.1 473.42 258.74 C 473.43 256.47 473.67 254.2 474.12 251.96 L 474.62 249.52 C 477.3 236.35 484.43 231.21 495.05 231.21 C 505.32 231.21 510.35 236.38 510.35 245.21 C 510.27 248.41 509.87 251.6 509.15 254.71" class="cls-2" style="fill: rgb(255, 81, 0);"/>
    <path d="M 481.93 224.48 L 483.2 217.21 L 512 217.21 L 510.75 224.49 L 481.93 224.49 Z" class="cls-2" style="fill: rgb(255, 81, 0);"/>
  </g>
</svg>
